X:49
T:Petticoats Loose,aka. RDO.49
T:Tie the Petticoat,aka. RDO.49
T:Jig. RDO.49
M:6/8
L:1/8
Q:3/8=120
S:Robert D. Owen MS,Indiana,1826.
R:.Jig
N:Titled only “Jig” in MS.
O:Indiana,USA
A:New Harmony
Z:vmp.Chris Partington
K:Bb
a|b2g afd|b2g afd|f2ff2a|f2ff2a|!
b2g afd|b2g afd|g2gg2b|g2gg2:|!
A|Bcd cBA|BAG AFD|fgf fcA|fgf fcA|!
Bcd cBA|BAG AFD|gag gdB|gagg2A|!
Bcd cBA|BAG AFD|fgf fcA|fgf fcA|!
Bcd cde|dcB AG^F|G2GG2B|G2GG2|]

